assets/img/dish.svg

<svg 
 xmlns="http://www.w3.org/2000/svg"
 xmlns:xlink="http://www.w3.org/1999/xlink"
 width="50px" height="50px">
<path fill-rule="evenodd"  fill-opacity="0" fill="rgb(33, 130, 238)"
 d="M0.000,0.000 L50.000,0.000 L50.000,50.000 L0.000,50.000 L0.000,0.000 Z"/>
<path fill-rule="evenodd"  fill="rgb(0, 111, 235)"
 d="M39.695,50.000 L2.305,50.000 C1.034,50.000 -0.000,48.958 -0.000,47.676 L-0.000,46.801 C-0.000,45.520 1.034,44.478 2.306,44.478 L3.779,44.478 C4.125,35.748 10.910,28.660 19.469,27.911 L19.469,27.199 C18.600,26.675 18.060,25.736 18.060,24.692 C18.060,23.077 19.365,21.762 20.969,21.762 C20.979,21.762 21.021,21.762 21.031,21.762 C22.635,21.762 23.940,23.077 23.940,24.692 C23.940,25.736 23.400,26.675 22.531,27.199 L22.531,27.911 C31.090,28.660 37.875,35.748 38.221,44.478 L39.694,44.478 C40.966,44.478 42.000,45.520 42.000,46.801 L42.000,47.676 C42.000,48.958 40.966,50.000 39.695,50.000 ZM22.550,24.692 C22.550,23.849 21.869,23.162 21.031,23.162 C21.021,23.162 20.979,23.162 20.968,23.162 C20.131,23.162 19.449,23.849 19.449,24.692 C19.449,25.323 19.829,25.881 20.417,26.114 C20.683,26.219 20.857,26.478 20.857,26.765 L20.857,27.846 L21.142,27.846 L21.142,26.765 C21.142,26.478 21.317,26.219 21.583,26.114 C22.171,25.882 22.550,25.323 22.550,24.692 ZM40.611,47.676 L40.611,46.801 C40.611,46.292 40.200,45.878 39.694,45.878 L38.264,45.878 L32.901,45.879 C32.517,45.879 32.206,45.565 32.206,45.179 C32.206,44.793 32.517,44.479 32.901,44.479 L36.830,44.479 C36.466,36.038 29.554,29.279 21.095,29.245 L20.904,29.245 C12.446,29.279 5.533,36.038 5.170,44.479 L28.408,44.479 C28.792,44.479 29.103,44.793 29.103,45.179 C29.103,45.565 28.792,45.879 28.408,45.879 L3.466,45.879 C3.460,45.879 3.453,45.878 3.447,45.878 L2.305,45.878 C1.800,45.878 1.389,46.292 1.389,46.801 L1.389,47.676 C1.389,48.186 1.800,48.600 2.305,48.600 L39.694,48.600 C40.200,48.600 40.611,48.186 40.611,47.676 L40.611,47.676 ZM36.090,27.947 C36.298,28.272 36.206,28.705 35.883,28.915 C35.767,28.991 35.636,29.027 35.507,29.027 C35.279,29.027 35.056,28.914 34.923,28.707 C34.812,28.533 32.223,24.420 34.651,21.302 C36.340,19.132 33.947,16.178 33.923,16.148 C33.678,15.851 33.717,15.411 34.011,15.163 C34.305,14.915 34.744,14.955 34.989,15.251 C35.021,15.289 35.772,16.201 36.251,17.474 C36.922,19.255 36.747,20.878 35.744,22.166 C33.930,24.496 36.069,27.914 36.090,27.947 ZM31.428,27.947 C31.636,28.272 31.543,28.705 31.222,28.915 C31.105,28.991 30.974,29.027 30.845,29.027 C30.617,29.027 30.394,28.914 30.261,28.707 C30.150,28.533 27.562,24.420 29.989,21.302 C31.675,19.136 29.295,16.189 29.261,16.148 C29.016,15.852 29.055,15.411 29.349,15.163 C29.643,14.915 30.082,14.955 30.328,15.251 C30.359,15.289 31.110,16.201 31.589,17.474 C32.260,19.255 32.085,20.878 31.082,22.166 C29.268,24.496 31.406,27.914 31.428,27.947 ZM11.587,28.271 C11.795,28.596 11.703,29.029 11.381,29.239 C11.264,29.315 11.133,29.351 11.004,29.351 C10.776,29.351 10.553,29.238 10.420,29.031 C10.309,28.858 7.721,24.745 10.149,21.626 C11.838,19.456 9.445,16.502 9.421,16.472 C9.176,16.176 9.215,15.735 9.509,15.488 C9.803,15.240 10.241,15.279 10.487,15.575 C10.519,15.614 11.269,16.526 11.749,17.798 C12.419,19.579 12.244,21.202 11.241,22.490 C9.427,24.820 11.566,28.238 11.587,28.271 ZM6.925,28.271 C7.133,28.596 7.041,29.029 6.719,29.239 C6.602,29.315 6.472,29.351 6.342,29.351 C6.115,29.351 5.892,29.238 5.759,29.031 C5.647,28.858 3.059,24.745 5.487,21.626 C7.176,19.456 4.783,16.502 4.758,16.472 C4.513,16.176 4.553,15.735 4.847,15.488 C5.141,15.240 5.579,15.279 5.825,15.575 C5.857,15.614 6.607,16.526 7.086,17.798 C7.757,19.579 7.582,21.202 6.579,22.490 C4.765,24.820 6.904,28.238 6.925,28.271 Z"/>
</svg>

<svg id="Слой_1" data-name="Слой 1" xmlns="http://www.w3.org/2000/svg" viewBox="0 0 50 50"><defs><style>.cls-1{fill:#2182ee;fill-opacity:0;}.cls-2{fill:#11a2f6;}</style></defs><title>dish</title><path class="cls-1" d="M0,0H50V50H0Z"/><path class="cls-2" d="M39.69,50H2.31A2.31,2.31,0,0,1,0,47.68V46.8a2.31,2.31,0,0,1,2.31-2.32H3.78A17.3,17.3,0,0,1,19.47,27.91V27.2A2.93,2.93,0,0,1,21,21.76H21a2.93,2.93,0,0,1,1.5,5.44v.71A17.3,17.3,0,0,1,38.22,44.48h1.47A2.31,2.31,0,0,1,42,46.8v.88A2.31,2.31,0,0,1,39.69,50ZM22.55,24.69A1.53,1.53,0,0,0,21,23.16H21a1.53,1.53,0,0,0-.55,2.95.72.72,0,0,1,.44.65v1.09h.28V26.76a.72.72,0,0,1,.44-.65A1.52,1.52,0,0,0,22.55,24.69Zm18.06,23V46.8a.92.92,0,0,0-.92-.92H32.9a.7.7,0,0,1,0-1.4h3.93A15.88,15.88,0,0,0,21.09,29.25H20.9A15.88,15.88,0,0,0,5.17,44.48H28.41a.7.7,0,0,1,0,1.4H2.31a.92.92,0,0,0-.92.92v.88a.92.92,0,0,0,.92.92H39.69a.92.92,0,0,0,.92-.92ZM36.09,28A.7.7,0,0,1,35.51,29a.73.73,0,0,1-.59-.32c-.11-.18-2.7-4.29-.27-7.41,1.69-2.17-.7-5.12-.73-5.15a.72.72,0,0,1,.09-1,.69.69,0,0,1,1,.09,8.67,8.67,0,0,1,1.26,2.22,4.64,4.64,0,0,1-.51,4.7C33.93,24.5,36.07,27.91,36.09,28Zm-4.66,0a.71.71,0,0,1-.21,1,.76.76,0,0,1-.38.11.71.71,0,0,1-.58-.32c-.11-.18-2.7-4.29-.27-7.41,1.68-2.16-.69-5.11-.73-5.15a.72.72,0,0,1,.09-1,.69.69,0,0,1,1,.09,8.67,8.67,0,0,1,1.26,2.22,4.66,4.66,0,0,1-.51,4.7C29.27,24.5,31.41,27.91,31.43,28Zm-19.84.32a.71.71,0,0,1-.21,1,.67.67,0,0,1-.38.11.69.69,0,0,1-.58-.32c-.11-.17-2.7-4.28-.27-7.4,1.69-2.17-.71-5.13-.73-5.16a.71.71,0,0,1,.09-1,.7.7,0,0,1,1,.08,8.84,8.84,0,0,1,1.26,2.23,4.64,4.64,0,0,1-.51,4.69C9.43,24.82,11.57,28.24,11.59,28.27Zm-4.66,0a.72.72,0,0,1-.21,1,.69.69,0,0,1-1-.21c-.11-.17-2.7-4.28-.27-7.4,1.69-2.17-.71-5.13-.73-5.16a.7.7,0,0,1,1.06-.9A8.38,8.38,0,0,1,7.09,17.8a4.64,4.64,0,0,1-.51,4.69C4.76,24.82,6.9,28.24,6.93,28.27Z"/></svg>
